X:32
T: Das weinholende Maedchen
N: Q2129A
O: Mitteleuropa, Deutschland (DDR) , Lausitz, Wittichenau; sorbisch
N: Sorbische Fassung der Ballade.
R: Ballade, Werbung
M: 2/4
L: 1/8
K: G
 | _B2dc | _B2=F2 | G2_BA | G2
=F2 | G2_BA | G2
=F2 | _B2c2 | d2c2 | _B3A | G4

@@@ Tune index: 1530
